X: 40218
T: Tinsel
R: reel
M: 4/4
K: Dmajor
A|BDBD A2GA|BDDA Bdc2|BDBD A2GF|EA ed cBAd|
BDBD ~A2GA|BDDA Bd~c2|BDBD A2GF|EA ed cBAc||
dfed c2 dB|{c}BDGA .B/.c/d gf|dfed c2 dB|{c}BAGF {G}FAEA|
dfed c2 dB|{c}BDGA .B/.c/d gf|dfed c2 dB|bagf {g}faeA||

